svgs/sharp-regular/bring-front.svg

<svg xmlns="http://www.w3.org/2000/svg" viewBox="0 0 640 512"><!--! Font Awesome Pro 6.6.0 by @fontawesome - https://fontawesome.com License - https://fontawesome.com/license (Commercial License) Copyright 2024 Fonticons, Inc. --><path d="M48 48l160 0 0 16 48 0 0-16 0-48L208 0 48 0 0 0 0 48 0 208l0 48 48 0 80 0 0-48-80 0L48 48zM384 464l0 48 48 0 160 0 48 0 0-48 0-160 0-48-48 0-80 0 0 48 80 0 0 160-160 0 0-16-48 0 0 16zM480 96L160 96l0 320 320 0 0-320z"/></svg>

<svg xmlns="http://www.w3.org/2000/svg" viewBox="0 0 640 512"><!--! Font Awesome Pro 6.4.2 by @fontawesome - https://fontawesome.com License - https://fontawesome.com/license (Commercial License) Copyright 2023 Fonticons, Inc. --><path d="M48 48H208V64h48V48 0H208 48 0V48 208v48H48h80V208H48V48zM384 464v48h48H592h48V464 304 256H592 512v48h80V464H432V448H384v16zM480 96H160V416H480V96z"/></svg>
